assets/Dotted six-pointed star/Flat/dotted_six-pointed_star_flat.svg

<svg width="32" height="32" viewBox="0 0 32 32" fill="none" xmlns="http://www.w3.org/2000/svg">
<path d="M2 6C2 3.79086 3.79086 2 6 2H26C28.2091 2 30 3.79086 30 6V26C30 28.2091 28.2091 30 26 30H6C3.79086 30 2 28.2091 2 26V6Z" fill="#8D65C5"/>
<path d="M16 17C16.5523 17 17 16.5523 17 16C17 15.4477 16.5523 15 16 15C15.4477 15 15 15.4477 15 16C15 16.5523 15.4477 17 16 17Z" fill="white"/>
<path d="M15.1339 6.49994L12.8246 10.4999L8.20572 10.4999C7.43592 10.4999 6.95479 11.3332 7.33969 11.9999L9.64912 15.9999L7.33972 19.9999C6.95482 20.6666 7.43594 21.4999 8.20574 21.4999H12.8245L15.1339 25.4999C15.5188 26.1666 16.4811 26.1666 16.866 25.4999L19.1754 21.4999H23.7942C24.564 21.4999 25.0451 20.6666 24.6602 19.9999L22.3508 15.9999L24.6602 11.9999C25.0451 11.3332 24.564 10.4999 23.7942 10.4999L19.1754 10.4999L16.866 6.49994C16.4811 5.83327 15.5188 5.83327 15.1339 6.49994ZM16 7.99994L17.4433 10.4999H14.5566L16 7.99994ZM9.07174 11.9999H11.9585L10.5151 14.4999L9.07174 11.9999ZM13.6906 11.9999H18.3094L20.6188 15.9999L18.3093 19.9999H13.6906L11.3812 15.9999L13.6906 11.9999ZM9.07177 19.9999L10.5151 17.4999L11.9585 19.9999H9.07177ZM15.9999 23.9999L14.5566 21.4999H17.4433L15.9999 23.9999ZM21.4848 17.4999L22.9282 19.9999H20.0414L21.4848 17.4999ZM22.9281 11.9999L21.4848 14.4999L20.0414 11.9999H22.9281Z" fill="white"/>
</svg>

<svg xmlns="http://www.w3.org/2000/svg" width="32" height="32" fill="none"><path fill="#8D65C5" d="M2 6a4 4 0 0 1 4-4h20a4 4 0 0 1 4 4v20a4 4 0 0 1-4 4H6a4 4 0 0 1-4-4V6Z"/><path fill="#fff" d="M16 17a1 1 0 1 0 0-2 1 1 0 0 0 0 2Z"/><path fill="#fff" d="m15.134 6.5-2.31 4H8.207A1 1 0 0 0 7.34 12l2.31 4-2.31 4a1 1 0 0 0 .866 1.5h4.619l2.309 4a1 1 0 0 0 1.732 0l2.31-4h4.618a1 1 0 0 0 .866-1.5l-2.31-4 2.31-4a1 1 0 0 0-.866-1.5h-4.619l-2.309-4a1 1 0 0 0-1.732 0ZM16 8l1.443 2.5h-2.886L16 8Zm-6.928 4h2.887l-1.444 2.5L9.072 12Zm4.619 0h4.618l2.31 4-2.31 4h-4.618l-2.31-4 2.31-4Zm-4.62 8 1.444-2.5L11.96 20H9.072ZM16 24l-1.443-2.5h2.886L16 24Zm5.485-6.5 1.443 2.5h-2.887l1.444-2.5Zm1.443-5.5-1.443 2.5L20.04 12h2.887Z"/></svg>
